svgs/thin/cheese.svg

<svg xmlns="http://www.w3.org/2000/svg" viewBox="0 0 512 512"><!-- Font Awesome Pro 6.0.0-alpha2 by @fontawesome - https://fontawesome.com License - https://fontawesome.com/license (Commercial License) --><path d="M316.811 32.668C313.721 32.221 310.627 32 307.551 32C293.381 32 279.574 36.684 268.227 45.512L12.244 246.398C4.514 252.465 0 261.746 0 271.572V432C0 458.51 21.49 480 48 480H464C490.51 480 512 458.51 512 432V256C512 82.297 377.301 41.426 316.811 32.668ZM278.051 58.141C286.58 51.506 296.779 48 307.551 48C309.865 48 312.193 48.166 314.518 48.502C369.084 56.402 496 92.436 496 256H25.926L278.051 58.141ZM464 464H48C30.355 464 16 449.645 16 432V272H496V432C496 449.645 481.645 464 464 464Z"/></svg>

<svg xmlns="http://www.w3.org/2000/svg" viewBox="0 0 512 512"><!--! Font Awesome Pro 6.3.0 by @fontawesome - https://fontawesome.com License - https://fontawesome.com/license (Commercial License) Copyright 2023 Fonticons, Inc. --><path d="M316.8 32.67C313.7 32.22 310.6 32 307.6 32c-14.17 0-27.98 4.684-39.32 13.51l-255.9 200.8C4.567 252.4 0 261.7 0 271.5V432C0 458.5 21.49 480 48 480h416c26.51 0 48-21.49 48-48V255.1C512 82.26 377.3 41.43 316.8 32.67zM278.1 58.14C286.6 51.51 296.8 48 307.6 48c2.314 0 4.643 .166 6.967 .502C369.1 56.4 496 92.44 496 256H25.93L278.1 58.14zM464 464h-416c-17.64 0-32-14.36-32-32v-160h480v160C496 449.6 481.6 464 464 464z"/></svg>
